X: 33
T: Rambling Rover, The
C:Andy M. Stewart (1952-2015), Scotland
R:song
D:Silly Wizard
D:The Dubliners
Z:id:hn-song-107 modified by John Chambers
M:6/8
L:1/8
%Q:3/8=100
K:G
% = = = = = = = = = =
%"^Chorus:"[|]
   D2E | "G"G2G "D"A2A | "G"A2G- G2d | d2B d2e | e2d- dBd | "C"e2e g2f | "G"e2d B2G | "Am"AAB     A2G | "C"E3 ||
"D"D2E | "G"G2G    A2A |    A2G- G2d | d2B d2e | e2d- dBd | "C"e2e g2f | "G"e2d B2G | "Am"ABA "D7"G2F | "G"G3 |]|
% = = = = = = = = = =
%"^Verse:"[|]
%   z2D | "G"G2G "D"A2A | "G"A2G- G2B | d2B d2e | e2d- dBd | "C"e-ee g2f | "G"e2d B2G | "Am"AAB A2G | "C"E3 ||
%"D"D2E | "G"G2G "D"A2A | "G"A2G- Gdd | d2B d2e | e2d- dBd | "C"e2e g2f | "G"e2d B2G | "Am"ABA "D7"G2F | "G"G3 |]
% = = = = = = = = = =

%%sep 1 1 500

